!!!COM: Palestrina, Giovanni Perluigi da
!!!OPR: Missa Tu es Petrus (1887)
!!!OMD: Kyrie
!!!OTL: First Section
**kern	**kern	**kern	**kern	**kern	**kern
*Ibass	*Ibarit	*Itenor	*Icalto	*Icant	*Icant
!Bassus	!Baritone	!Tenor	!Altus	!Cantus 2	!Cantus 1
*clefF4	*clefF4	*clefGv2	*clefG2	*clefG2	*clefG2
*k[]	*k[]	*k[]	*k[]	*k[]	*k[]
*G:mix	*G:mix	*G:mix	*G:mix	*G:mix	*G:mix
*M4/2	*M4/2	*M4/2	*M4/2	*M4/2	*M4/2
=1	=1	=1	=1	=1	=1
1.G	1.B	1.d	0r	0r	0r
4F#	4A	2d	.	.	.
4E	4G	.	.	.	.
=2	=2	=2	=2	=2	=2
2F#	2A	1d	0r	0r	0r
2G	2B	.	.	.	.
4C	1c	1e	.	.	.
4D	.	.	.	.	.
4E	.	.	.	.	.
4F	.	.	.	.	.
=3	=3	=3	=3	=3	=3
2G	1B	2d	0r	0r	0r
2G	.	1e	.	.	.
1A	1c	.	.	.	.
.	.	4d	.	.	.
.	.	4c	.	.	.
=4	=4	=4	=4	=4	=4
1G	2d	2.B	1.g	1.b	1.dd
.	4G	.	.	.	.
.	4A	4c	.	.	.
1r	4B	1d	.	.	.
.	4c	.	.	.	.
.	[2d	.	4f#	4a	2dd
.	.	.	4e	4g	.
=5	=5	=5	=5	=5	=5
0r	4d]	0r	2f#	2a	1dd
.	4c	.	.	.	.
.	2B	.	2g	2b	.
.	2A	.	4c	1cc	1ee
.	.	.	4d	.	.
.	2c	.	4e	.	.
.	.	.	4f	.	.
=6	=6	=6	=6	=6	=6
0r	1G	0r	1g	1b	2dd
.	.	.	.	.	1ee
.	1r	.	1a	1cc	.
.	.	.	.	.	4dd
.	.	.	.	.	4cc
=7	=7	=7	=7	=7	=7
1r	0r	0r	1g	1dd	1b
2r	.	.	1c	[1ee	1cc
[2c	.	.	.	.	.
=8	=8	=8	=8	=8	=8
2c]	0r	1G	2r	2ee]	1g
4B	.	.	2g	4dd	.
4A	.	.	.	4cc	.
2B	.	2G	2g	2dd	1r
2c	.	2g	2e	2ee	.
=9	=9	=9	=9	=9	=9
4F	1r	2f	1a	2cc	1r
4G	.	.	.	.	.
4A	.	2f	.	2cc	.
4B	.	.	.	.	.
2c	2r	1e	[1g	1ee	2r
2c	[2c	.	.	.	[2ee
=10	=10	=10	=10	=10	=10
1.G	2c]	2r	1g]	0gg	2ee]
.	4B	2g	.	.	4dd
.	4A	.	.	.	4cc
.	2B	2g	2r	.	2dd
2C	2c	2e	2g	.	2ee
=11	=11	=11	=11	=11	=11
2r	4F	1f	2a	0r	2cc
.	4G	.	.	.	.
2F	4A	.	2a	.	2cc
.	4B	.	.	.	.
2C	1c	1e	2g	.	1cc
2C	.	.	2g	.	.
=12	=12	=12	=12	=12	=12
2G	2B	0d	1.g	1b	2dd
2G	2G	.	.	.	1dd
1D	1A	.	.	1a	.
.	.	.	2f#	.	2dd
=13	=13	=13	=13	=13	=13
0r	0r	0r	2g	2b	2dd
.	.	.	2e	2cc	2ee
.	.	.	4d	1dd	1ff
.	.	.	4e	.	.
.	.	.	4f	.	.
.	.	.	4g	.	.
=14	=14	=14	=14	=14	=14
0r	0r	1r	2a	2.cc	2.ee
.	.	.	2e	.	.
.	.	.	.	4b	4dd
.	.	2r	2f	2a	2cc
.	.	[2g	2g	[2dd	2b
=15	=15	=15	=15	=15	=15
1r	1r	2g]	1d	4dd]	1a
.	.	.	.	4cc	.
.	.	2f#	.	2a	.
[1G	2r	2g	1r	1b	4g
.	.	.	.	.	4a
.	[2B	2e	.	.	4b
.	.	.	.	.	4cc
=16	=16	=16	=16	=16	=16
2G]	2B]	1.d	0r	2g	1dd
2F#	2A	.	.	2a	.
2G	2B	.	.	1g	1r
2E	2c	2e	.	.	.
=17	=17	=17	=17	=17	=17
4D	1d	1f	0r	0r	2r
4E	.	.	.	.	.
4F	.	.	.	.	1a
4G	.	.	.	.	.
2A	2.c	2.e	.	.	.
2E	.	.	.	.	2g
.	4B	4d	.	.	.
=18	=18	=18	=18	=18	=18
2F	2A	2c	2r	2r	2a
2G	2G	2B	1g	2g	2b
1D	2.d	1A	.	1a	1dd
.	.	.	2f#	.	.
.	4c	.	.	.	.
=19	=19	=19	=19	=19	=19
0r	2B	1r	2g	2b	2dd
.	2c	.	2e	2g	1cc
.	1G	2r	1d	1dd	.
.	.	[2g	.	.	2b
=20	=20	=20	=20	=20	=20
1r	2C	2g]	2e	0r	2cc
.	2D	2f#	4d	.	2a
.	.	.	4c	.	.
2r	2E	2g	2B	.	1g
[2c	2C	2e	2c	.	.
=21	=21	=21	=21	=21	=21
2c]	1G	1d	2d	2r	2g
2B	.	.	2G	1gg	2dd
2c	1r	2e	2g	.	2cc
2A	.	2c	2a	2ff#	2cc
=22	=22	=22	=22	=22	=22
2.G	0r	2r	2d	2gg	1.b
.	.	2G	1g	2ee	.
4A	.	.	.	.	.
2B	.	2G	.	2dd	.
2c	.	2c	2e	2ee	4a
.	.	.	.	.	4g
=23	=23	=23	=23	=23	=23
1F	0r	4A	2.f	2dd	1a
.	.	4B	.	.	.
.	.	4c	.	1cc	.
.	.	4A	4e	.	.
1G	.	2B	1d	.	[1g
.	.	2G	.	2b	.
=24	=24	=24	=24	=24	=24
2.C	2r	2r	2.c	4cc	1g]
.	.	.	.	4dd	.
.	1c	2.g	.	4ee	.
4D	.	.	8B	4ff	.
.	.	.	8A	.	.
4E	.	.	1G	1gg	2r
4F	.	8f	.	.	.
.	.	8e	.	.	.
2G	2B	2d	.	.	[2gg
=25	=25	=25	=25	=25	=25
2C	2c	2e	1r	1r	2gg]
2D	2A	4d	.	.	2ff#
.	.	4c	.	.	.
2E	2.G	2B	1g	2r	2gg
2C	.	2c	.	[2gg	2ee
.	4A	.	.	.	.
=26	=26	=26	=26	=26	=26
2G	2B	2d	2g	2gg]	2dd
2C	2c	1c	2g	2gg	2ee
1F	2A	.	1a	4ff	2cc
.	.	.	.	4ee	.
.	[2d	2A	.	4dd	[2dd
.	.	.	.	4cc	.
=27	=27	=27	=27	=27	=27
0G	4d]	1d	2.g	4b	2dd]
.	4c	.	.	4a	.
.	2.B	.	.	4b	2g
.	.	.	8f	4cc	.
.	.	.	8e	.	.
.	.	2.B	2d	[1dd	1b
.	4A	.	.	.	.
.	2G	.	[2g	.	.
.	.	4c	.	.	.
=28	=28	=28	=28	=28	=28
0D	0A	0d	2g]	1dd]	1a
.	.	.	4f#	.	.
.	.	.	4e	.	.
.	.	.	1f#	1a	1dd
=29	=29	=29	=29	=29	=29
0G	0G	0d	0g	0b	0dd
*-	*-	*-	*-	*-	*-
!!!CDT: 1525/^1526/-1594/2/2
!!!OCY: Italia
!!!AGN: Mass (Parody)
!!!AST: renaissance, vocal
!!!ASW: Motet 1572 (Palestrina)
!!!PWK: Masses, Book 11
!!!RNB: Cadence finals: C,D
!!!YOR: Le Opere Complete, v. 28, p. 268
!!!YOO: Rome, Italy: Fratelli Scalera
!!!END: 1992//
!!!EED: John Miller
!!!YEC: Copyright 2000, John Miller
!!!YEN: United States of America
!!!YEM: Rights to all derivative electronic formats reserved.
!!!YEM: Refer to licensing agreement for further details.
!!!YEM: This file must be accompanied by the licensing agreement.
!!!YEM: A copy of the licensing agreement may be found at http://www.music-cog.ohio-state.edu/HumdrumDatabases/Palestrina/license.txt
!!!EMD: converted to Humdrum by Bret Aarden
